icons/pumpkin/pumpkin-24px.svg

<?xml version="1.0" encoding="UTF-8" standalone="no"?>
<svg width="24px" height="24px" viewBox="0 0 24 24" version="1.1" xmlns="http://www.w3.org/2000/svg" xmlns:xlink="http://www.w3.org/1999/xlink" xmlns:sketch="http://www.bohemiancoding.com/sketch/ns">
    <!-- Generator: Sketch 3.4.4 (17249) - http://www.bohemiancoding.com/sketch -->
    <title>Pumpkin 24x24</title>
    <desc>Created with Sketch.</desc>
    <defs></defs>
    <g id="Page-1" stroke="none" stroke-width="1" fill="none" fill-rule="evenodd" sketch:type="MSPage">
        <g id="Pumpkin-24x24" sketch:type="MSArtboardGroup">
            <g id="Pumpkin" sketch:type="MSLayerGroup">
                <path d="M11.2843381,9.14221191 C11.2843381,9.14221191 8.20670136,4.85534668 11.5797482,0 L14.4145871,1.94116211 C14.4145871,1.94116211 12.3219358,4.59362793 14.2475949,9.09326172 C16.173254,13.5928955 11.2843381,9.14221191 11.2843381,9.14221191 Z" id="Stem" fill="#8C6E3D" sketch:type="MSShapeGroup"></path>
                <path d="M17.1875756,23.5242044 C15.1184162,23.5242044 15.9773702,20.0708149 15.9773702,15.7601775 C15.9773702,11.4495402 17.6547553,7.95507812 19.7239146,7.95507812 C21.7930739,7.95507812 23.470459,11.4495402 23.470459,15.7601775 C23.470459,20.0708149 19.2567349,23.5242044 17.1875756,23.5242044 Z" id="Pumpkin-Slice" stroke="#BB7D17" fill="#F4A11A" sketch:type="MSShapeGroup"></path>
                <path d="M6.74382091,23.5242044 C8.81298024,23.5242044 7.95402629,20.0708149 7.95402629,15.7601775 C7.95402629,11.4495402 6.27664123,7.95507812 4.2074819,7.95507812 C2.13832256,7.95507812 0.4609375,11.4495402 0.4609375,15.7601775 C0.4609375,20.0708149 4.67466157,23.5242044 6.74382091,23.5242044 Z" id="Pumpkin-Slice" stroke="#BB7D17" fill="#F4A11A" sketch:type="MSShapeGroup"></path>
                <ellipse id="Pumpkin-Slice" stroke="#BB7D17" fill="#F3A11A" sketch:type="MSShapeGroup" cx="8.61014303" cy="15.1106567" rx="4.31428528" ry="8.45977783"></ellipse>
                <ellipse id="Pumpkin-Slice" stroke="#BB7D17" fill="#F3A11A" sketch:type="MSShapeGroup" cx="15.3212535" cy="15.1106567" rx="4.31428528" ry="8.45977783"></ellipse>
                <ellipse id="Pumpkin-Slice" stroke="#BB7D17" fill="#F4A11A" sketch:type="MSShapeGroup" cx="11.9656982" cy="14.7852173" rx="3.83492025" ry="8.78521729"></ellipse>
            </g>
        </g>
    </g>
</svg>

<svg width="24" height="24" viewBox="0 0 24 24" xmlns="http://www.w3.org/2000/svg"><title>Pumpkin 24x24</title><g fill="none" fill-rule="evenodd"><path d="M11.284 9.142S8.207 4.855 11.58 0l2.835 1.94s-2.093 2.654-.167 7.153c1.925 4.5-2.964.05-2.964.05z" fill="#8C6E3D"/><path d="M17.188 23.524c-2.07 0-1.21-3.453-1.21-7.764 0-4.31 1.677-7.805 3.746-7.805 2.07 0 3.746 3.495 3.746 7.805s-4.213 7.764-6.282 7.764zM6.744 23.524c2.07 0 1.21-3.453 1.21-7.764 0-4.31-1.677-7.805-3.747-7.805S.46 11.45.46 15.76s4.215 7.764 6.284 7.764z" stroke="#BB7D17" fill="#F4A11A"/><ellipse stroke="#BB7D17" fill="#F3A11A" cx="8.61" cy="15.111" rx="4.314" ry="8.46"/><ellipse stroke="#BB7D17" fill="#F3A11A" cx="15.321" cy="15.111" rx="4.314" ry="8.46"/><ellipse stroke="#BB7D17" fill="#F4A11A" cx="11.966" cy="14.785" rx="3.835" ry="8.785"/></g></svg>
